X:51
T:De Strigat
O:rumania
C:Roemenie (Maramures)
M:2/4
L:1/8
Q:1/4=83
K:G
V:1
"D" F/G/(A A/)G/F/E/ |"G" D/E/F/A/ G/F/G/B/ |"D" A/B/A/G/ F/D/E/F/ |"G" G/F/G/A/ B/G/D/G/ |
"D" F/G/(A A/)G/F/E/ |"G" D/E/F/A/ G/F/G/B/ |"D" A/B/A/G/ F/D/E/F/ |"G" G3/2 A/G2  |:
{^c/}"G" d4 |{^c/}d4 |{^c/}d4 |{^c/}d4 |
|]"G" dc c/B/A/B/ |"C" cB c/B/G |"D" A/B/(c c/)B/A/B/ |"G" c/BG/ D2) |
dc c/B/A/B/ |"C" cB c/B/G |"D" F/G/(A A/)G/F/A/ |"G" G4 :|
"G" DE/F/ GA/B/ |"C" cB c/B/G |"D" A/B/(c c/)B/A/B/ |"G" c/BG/ D2 |
D)E/F/ GA/B/ |"C" cB d2 |"D7" d/B/(c c/)B/A/B/ |"G" G2 G2 |]





